!!!OTL: Der Essigkrug (3-49), S. 143
!!!id: P1021
**kern
*clefG2
*k[b-]
*g:
{8g
=1
8dd
8dd
8dd
8cc
=2
4dd
4b-}
=3
{4dd
8cc
8b-
=4
4a}
8r
=5
{8g
=6
8dd
8dd
8dd
8cc
=7
4dd
4b-}
=8
{4dd
8cc
8b-
=9
4a}
8r
=10
{16b-
16a
=11
8g
8b-
8a
8a
=12
16g
16g}
=13
{8b-
8a
8a
=14
8g}
=15
{8b-
8a
8a
=16
8g}
=17
{8b-
8a
8a
=18
4g}
=19
{4dd
=20
4cc
4a
=21
4.g}
==
*-
!!!minrhy: 16
!!!meters: 2/4 ]  ZZ[9
!!!cut: Der Essigkrug (3-49), S. 143
!!!reg: Lothringen
!!!trd: PINCK, Louis: Verklingende Weisen, Bd3, Metz 1933
!!!rhy1: X_  X_X_X_X_  X__X__   (x2)
!!!rhy2: X__X_X_  X__0
!!!key: P1021  16  G 2/4 ]  ZZ[9
!!!mod: PENTATONIK MOLL ?]  AMBITUS[5
!!!kad: 3b23b211111
!!!akz: 55_52_55_52_11_1_1_1_41_
!!!fot: 'a__b__a__b__c__d__d__d__bv_
!!!for: 'a__b__a__b__c__aw_aw_bw_bw_
!!!fok: '^a_\__^a_\__\__\__\__\__\__
!! PHRAS[VORWIEGEND AUFTAKTIG]
!!!fkt: Arbeits-, Berufslied
!! LOTH VKL
!! PR[54] 2K[2] 2G[10] 3K[2] 3G[2] 4A[4] 4Ü[0] 5A[0] 6K[0] 6G[0]
!! 7K[0] 7G[0] 8A[2] MEHR[0] SI[23] ABS[48] SR[13] SP[10]
!! ST[9] 2k[2] 2g[10] 3k[4] 3g[2] 4d[0] 4ü[0] 5d[4] 6k[0] 6g[0]
!! 7k[0] 7g[0] 8d[0] mehr[0] si[23] dm[0] sr[13] sp[10]
!! 1F[4] 2F[53] 3F[37] 4F[0] LF[0] 2P[4] 3P[2] 4P[0] TRI[0] DF[5] AB[51]
!! TF[0] U3K[0] U3[0] U4[0] U4Ü[0] U5[4] U6K[0] U6[2] U7K[0] U7[0]
!! N1[24] N2K[0] N2[6] N3K[0] N3[22] N4[18] N4Ü[0] N5[18] N6K[0] N6[4]
!!!n7k: 0] N7[0] O1[0] O2K[0] O2[0] O3K[0] O3[0] HÖ[0
